!!!OTL: Stiewel mu&szlig; sterben! (284), S. 599
!!!id: T0474
**kern
*clefG2
*k[]
*C:
{16c
=1
16c
8e
8e
8e
8e
8g
8g
=2
8g
8f
8f
8a
8g
8g}
=3
{8e
8e
8e
8e
8g
8g
=4
8g
8f
8f
4e}
=5
{8g
=6
8cc
8b
8a
8a
8g
8g
=7
8cc
8b
16a
16a
8a
8g
8g}
=8
{8e
8e
8e
8e
8g
8g
=9
8g
8f
8f
8e}
4r
==
*-
!!!minrhy: 16
!!!meters: 6/8 ]  ZZ[4
!!!cut: Stiewel mu&szlig; sterben! (284), S. 599
!!!reg: Luxemburg
!!!trd: Singendes Volk, Esch-Alzette, 1937 posth.
!!!rhy1:   X_X_X_X_X_X_  X_X_X_X_X_X_   (x2)
!!!rhy2: X_X_X_X_X_X_  X_X_X_X__
!!!key: T0474  16  C 6/8 ]  ZZ[4
!!!mod: SECHSTONSKALA DUR ?]  AMBITUS[6b
!!!kad: 5353
!!!akz: 3356_3353_+16+16_3353_
!!!fot: 'a__aw_as"aw_
!!!for: 'a__aw_b__aw_
!!!fok: '/__^__^__^__
!! PHRAS[VORWIEGEND VOLLTAKTIG]
!!!fkt: ???
!!!bem: Godbringen, fff Linden, 1903
!! THILL; Mathias
!! PR[43] 2K[4] 2G[0] 3K[7] 3G[7] 4A[0] 4Ü[0] 5A[4] 6K[0] 6G[0]
!! 7K[0] 7G[0] 8A[0] MEHR[0] SI[21] ABS[28] SR[4] SP[18]
!! ST[8] 2k[0] 2g[11] 3k[18] 3g[7] 4d[0] 4ü[0] 5d[0] 6k[0] 6g[0]
!! 7k[0] 7g[0] 8d[0] mehr[0] si[36] dm[-15] sr[11] sp[25]
!! 1F[7] 2F[79] 3F[14] 4F[0] LF[0] 2P[0] 3P[0] 4P[0] TRI[0] DF[3] AB[29]
!! TF[0] U3K[0] U3[0] U4[0] U4Ü[0] U5[0] U6K[0] U6[0] U7K[0] U7[7]
!! N1[24] N2K[0] N2[21] N3K[0] N3[21] N4[10] N4Ü[0] N5[10] N6K[0] N6[7]
!!!n7k: 0] N7[0] O1[0] O2K[0] O2[0] O3K[0] O3[0] HÖ[0
!!!RNB: symbol: &szlig; = sz ligature (UTF-8: ÃŸ)
